X:360
%%etbk:tnset id:166,pos:2,rep:3x,ant:
%%etbk:wsite http://www.trad.katesplacedoolin.com/tunes/kilmovee.html
%%etbk:color #ffe6e6
%%etbk:pldat 2015-03-25T18:47,2014-12-09T17:55,2014-12-03T17:26,2014-12-02T17:39,2014-05-19T19:30,2014-05-14T16:48,2014-04-27T12:44,2014-04-06T15:53,2014-03-22T15:21,2014-03-16T17:34,2014-03-15T16:51,2014-03-09T14:57,2014-02-05T17:26,2013-11-26T16:22,2013-10-04T15:50,2013-09-02T18:17,2013-05-21T15:58,2013-05-18T13:59,2013-05-14T18:23,2013-05-12T18:24,2013-05-06T18:59
T:Kilmovee Jig, The
Z: Piano Box Version by Martin Fleischmann
H: Created 2013-02-19 /  Last Modified 2014-12-02
R:jig
M:6/8
K: Gmaj
|: "G"!3!G2G !5!B2B | !3!GAB !4!A!3!G!2!E | !1!D!3!G!1!G !2!B!3!d!5!g | "D"!4!e!5!ge !3!d!1!B!2!A |
"G"!1!GGG !3!BBB | !4!ded !3!B!1!G!2!E | !1!D!2!E!1!G !2!B!3!d!5!g |1 "D"!4!e!3!d!2!B "G"!1!G2!2!F:|2 "D"!4!e!3!d!2!B "G"!1!G!2!B!3!d||
|: "G"!5!gGg !3!d!2!B!1!G | !3!A!2!G!1!E !2!G!1!E!2!F |!1!G!2!B!3!d !5!g2!3!f | "D"!2!e!5!ag !3!f!2!e!1!d |
"G"!2!B!2!B!2!B !4!d!2!B!1!A | !3!G!5!BG !4!A!3!G!2!E | !1!D!2!E!1!G !2!B!3!d!5!g|1 "D"!4!e!3!d!2!B "G"!1!G!2!B!3!d:|2 "D"!4!e!3!d!2!B "G"!1!G3||


